static/images/scale@3x.svg

<svg height="102" viewBox="0 0 102 102" width="102" xmlns="http://www.w3.org/2000/svg" xmlns:xlink="http://www.w3.org/1999/xlink"><defs><circle id="a" cx="58" cy="45" r="35"/><filter id="b" height="174.3%" width="174.3%" x="-37.1%" y="-31.4%"><feOffset dy="4" in="SourceAlpha" result="shadowOffsetOuter1"/><feGaussianBlur in="shadowOffsetOuter1" result="shadowBlurOuter1" stdDeviation="8"/><feColorMatrix in="shadowBlurOuter1" values="0 0 0 0 0.254901961 0 0 0 0 0.458823529 0 0 0 0 0.647058824 0 0 0 0.24 0"/></filter><linearGradient id="c" x1="0%" x2="149.461%" y1="0%" y2="71.875%"><stop offset="0" stop-color="#00eaf8"/><stop offset="1" stop-color="#6d42ef"/></linearGradient></defs><g fill="none" transform="translate(-7 2)"><use fill="#000" filter="url(#b)" xlink:href="#a"/><use fill="#fff" fill-rule="evenodd" xlink:href="#a"/><path d="m50.0684541 66.4146885c.643196-.1791414 1.3504909.0900649 1.7001481.6948774l.3683813.637207 9.733007 16.7521634.9155086-4.1330188c.1791628-.8088215.9800823-1.3192608 1.7889038-1.140098s1.3192607.9800822 1.140098 1.7889037l-1.7299495 7.809772c-.0786081.3551721-.2771518.6528819-.5436613.8599188-.2665553.2070426-.600949.3233601-.9512805.3158875-.1849891.0034837-.3686845-.0273582-.5414584-.0899743l-7.5607659-1.665111c-.8090396-.1781752-1.3204563-.9784709-1.1422811-1.7875106.1781752-.8090396.9784709-1.3204562 1.7875105-1.1422811l4.4059217.9703183-9.5697931-16.4712504c-3.4994102 1.5729857-7.4507988 1.5568269-10.876476.080263l-9.5071139 16.3813655 4.3622319-.9606964c.8090396-.1781751 1.6093353.3332415 1.7875105 1.1422811.1781752.8090397-.3332415 1.6093354-1.1422811 1.7875106l-7.4670345 1.6444685c-.1945425.0790338-.4046359.1169962-.6159515.1100823-.3541031.0121217-.6929439-.1024361-.9631057-.3096298-.2702793-.2073169-.4717471-.5072201-.5510744-.865642l-1.7299495-7.809772c-.1791627-.8088215.3312765-1.6097409 1.140098-1.7889037s1.609741.3312765 1.7889038 1.140098l.9259854 4.1803157 9.3662662-16.1386759c-.5589489-.4078689-1.0919542-.8628126-1.5931524-1.3640589-4.3205101-4.3209253-5.2000115-11.0051226-2.1442944-16.296606.9438162-1.6343751 2.1903572-3.0100012 3.6364867-4.0841725l-2.2429758-3.9091963-7.0552169-12.1506512-.8930988 4.0318508c-.1791628.8088215-.9800823 1.3192608-1.7889038 1.140098s-1.3192607-.9800822-1.140098-1.7889037l1.6766666-7.5692286c.0276253-.4866534.2915723-.9504856.744631-1.213552.2384277-.1384418.4991818-.2038338.7563272-.2030567.1119297-.0011612.2257419.010272.3397188.0353945l7.809772 1.7199498c.8090396.1781752 1.3204563.9784709 1.1422811 1.7875105-.1781752.8090397-.9784709 1.3204563-1.7875105 1.1422812l-4.4988589-.9907859 7.2877781 12.5511751 2.2415614 3.9067468c2.7484819-1.2157878 5.8972434-1.5144506 8.95807-.693832.6821313.1828819 1.3402353.4093441 1.9707523.6763036l9.5109311-16.4109147-4.3650046.9613071c-.8090396.1781751-1.6093353-.3332415-1.7875105-1.1422812-.1781752-.8090396.3332415-1.6093353 1.1422811-1.7875105l7.4670337-1.6444683c.1945429-.079034.4046359-.1169957.6159495-.1100824.3541036-.0121224.6929451.1024351.9631074.3096289.2702799.2073169.4717481.5072204.5510755.8656428l1.7299495 7.809772c.1791627.8088215-.3312765 1.6097409-1.140098 1.7889037s-1.609741-.3312765-1.7889038-1.140098l-.9252663-4.1770695-9.3488602 16.1312647c2.7996306 1.9734392 4.7161644 4.9106581 5.2544558 8.3828207.0014598.0094164.0029095.0188367.0043491.0282609h17.1052171l-3.3388059-3.3388058c-.6087849-.608785-.6087849-1.5958205 0-2.2046055.608785-.6087849 1.5958205-.6087849 2.2046055 0l5.8822171 5.8822171c.3193729.3193729.4712005.7428451.4554828 1.1611942.0157177.4183491-.1361099.8418213-.4554828 1.1611942l-5.8822171 5.8822171c-.608785.6087849-1.5958205.6087849-2.2046055 0-.6087849-.608785-.6087849-1.5958205 0-2.2046055l3.3388059-3.3388058h-18.2738392c-.8062354 0-1.4660122-.6181804-1.5182257-1.3999688-.148634-.5753549-.2387368-1.0199597-.3698265-1.6525036-.7752359-3.7407267-3.6683518-6.5441049-7.5744419-7.5913418-4.5904307-1.230711-9.4351547.775358-11.8118235 4.8909562s-1.6926122 9.3144183 1.6677846 12.6751379c3.3603968 3.3607197 8.5591511 4.0452758 12.6749776 1.6690023.1526876-.0881542.3144316-.1464134.4784541-.1765937zm-43.06814055-9.9422171c-.0081858-.4093434.14390592-.8212963.45627519-1.1336656l5.88221706-5.8822171c.608785-.6087849 1.5958205-.6087849 2.2046055 0 .6087849.608785.6087849 1.5958205 0 2.2046055l-3.3388059 3.3388058h11.8953946c1.049341 0 1.9.6715729 1.9 1.5s-.850659 1.5-1.9 1.5h-11.8953946l3.3388059 3.3388058c.6087849.608785.6087849 1.5958205 0 2.2046055-.608785.6087849-1.5958205.6087849-2.2046055 0l-5.88221706-5.8822171c-.31236927-.3123693-.46446099-.7243222-.45627519-1.1336656-.00020873-.0091564-.00031355-.0183328-.00031355-.0275286s.00010482-.0183722.00031355-.0275286z" fill="url(#c)"/></g></svg>

<svg xmlns="http://www.w3.org/2000/svg" width="102" height="102" viewBox="0 0 102 102" xmlns:xlink="http://www.w3.org/1999/xlink">
  <defs>
    <circle id="b" cx="58" cy="45" r="35"/>
    <filter id="a" width="174.3%" height="174.3%" x="-37.1%" y="-31.4%" filterUnits="objectBoundingBox">
      <feOffset dy="4" in="SourceAlpha" result="shadowOffsetOuter1"/>
      <feGaussianBlur stdDeviation="8" in="shadowOffsetOuter1" result="shadowBlurOuter1"/>
      <feColorMatrix values="0 0 0 0 0.254901961 0 0 0 0 0.458823529 0 0 0 0 0.647058824 0 0 0 0.24 0" in="shadowBlurOuter1"/>
    </filter>
    <linearGradient id="c" x1="0%" x2="149.461%" y1="0%" y2="71.875%">
      <stop stop-color="#00EAF8" offset="0%"/>
      <stop stop-color="#6D42EF" offset="100%"/>
    </linearGradient>
  </defs>
  <g fill="none" transform="translate(-7 2)">
    <use fill="black" filter="url(#a)" xlink:href="#b"/>
    <use fill="#FFFFFF" fill-rule="evenodd" xlink:href="#b"/>
    <path fill="url(#c)" d="M50.0684541,66.4146885 C50.7116501,66.2355471 51.418945,66.5047534 51.7686022,67.1095659 L52.1369835,67.7467729 L61.8699905,84.4989363 L62.7854991,80.3659175 C62.9646619,79.557096 63.7655814,79.0466567 64.5744029,79.2258195 C65.3832244,79.4049823 65.8936636,80.2059017 65.7145009,81.0147232 L63.9845514,88.8244952 C63.9059433,89.1796673 63.7073996,89.4773771 63.4408901,89.684414 C63.1743348,89.8914566 62.8399411,90.0077741 62.4896096,90.0003015 C62.3046205,90.0037852 62.1209251,89.9729433 61.9481512,89.9103272 L54.3873853,88.2452162 C53.5783457,88.067041 53.066929,87.2667453 53.2451042,86.4577056 C53.4232794,85.648666 54.2235751,85.1372494 55.0326147,85.3154245 L59.4385364,86.2857428 L49.8687433,69.8144924 C46.3693331,71.3874781 42.4179445,71.3713193 38.9922673,69.8947554 L29.4851534,86.2761209 L33.8473853,85.3154245 C34.6564249,85.1372494 35.4567206,85.648666 35.6348958,86.4577056 C35.813071,87.2667453 35.3016543,88.067041 34.4926147,88.2452162 L27.0255802,89.8896847 C26.8310377,89.9687185 26.6209443,90.0066809 26.4096287,89.999767 C26.0555256,90.0118887 25.7166848,89.8973309 25.446523,89.6901372 C25.1762437,89.4828203 24.9747759,89.1829171 24.8954486,88.8244952 L23.1654991,81.0147232 C22.9863364,80.2059017 23.4967756,79.4049823 24.3055971,79.2258195 C25.1144186,79.0466567 25.9153381,79.557096 26.0945009,80.3659175 L27.0204863,84.5462332 L36.3867525,68.4075573 C35.8278036,67.9996884 35.2947983,67.5447447 34.7936001,67.0434984 C30.47309,62.7225731 29.5935886,56.0383758 32.6493057,50.7468924 C33.5931219,49.1125173 34.8396629,47.7368912 36.2857924,46.6627199 L34.0428166,42.7535236 L26.9875997,30.6028724 L26.0945009,34.6347232 C25.9153381,35.4435447 25.1144186,35.953984 24.3055971,35.7748212 C23.4967756,35.5956584 22.9863364,34.794739 23.1654991,33.9859175 L24.8421657,26.4166889 C24.869791,25.9300355 25.133738,25.4662033 25.5867967,25.2031369 C25.8252244,25.0646951 26.0859785,24.9993031 26.3431239,25.0000802 C26.4550536,24.998919 26.5688658,25.0103522 26.6828427,25.0354747 L34.4926147,26.7554245 C35.3016543,26.9335997 35.813071,27.7338954 35.6348958,28.542935 C35.4567206,29.3519747 34.6564249,29.8633913 33.8473853,29.6852162 L29.3485264,28.6944303 L36.6363045,41.2456054 L38.8778659,45.1523522 C41.6263478,43.9365644 44.7751093,43.6379016 47.8359359,44.4585202 C48.5180672,44.6414021 49.1761712,44.8678643 49.8066882,45.1348238 L59.3176193,28.7239091 L54.9526147,29.6852162 C54.1435751,29.8633913 53.3432794,29.3519747 53.1651042,28.542935 C52.986929,27.7338954 53.4983457,26.9335997 54.3073853,26.7554245 L61.774419,25.1109562 C61.9689619,25.0319222 62.1790549,24.9939605 62.3903685,25.0008738 C62.7444721,24.9887514 63.0833136,25.1033089 63.3534759,25.3105027 C63.6237558,25.5178196 63.825224,25.8177231 63.9045514,26.1761455 L65.6345009,33.9859175 C65.8136636,34.794739 65.3032244,35.5956584 64.4944029,35.7748212 C63.6855814,35.953984 62.8846619,35.4435447 62.7054991,34.6347232 L61.7802328,30.4576537 L52.4313726,46.5889184 C55.2310032,48.5623576 57.147537,51.4995765 57.6858284,54.9717391 C57.6872882,54.9811555 57.6887379,54.9905758 57.6901775,55 L74.7953946,55 L71.4565887,51.6611942 C70.8478038,51.0524092 70.8478038,50.0653737 71.4565887,49.4565887 C72.0653737,48.8478038 73.0524092,48.8478038 73.6611942,49.4565887 L79.5434113,55.3388058 C79.8627842,55.6581787 80.0146118,56.0816509 79.9988941,56.5 C80.0146118,56.9183491 79.8627842,57.3418213 79.5434113,57.6611942 L73.6611942,63.5434113 C73.0524092,64.1521962 72.0653737,64.1521962 71.4565887,63.5434113 C70.8478038,62.9346263 70.8478038,61.9475908 71.4565887,61.3388058 L74.7953946,58 L56.5215554,58 C55.71532,58 55.0555432,57.3818196 55.0033297,56.6000312 C54.8546957,56.0246763 54.7645929,55.5800715 54.6335032,54.9475276 C53.8582673,51.2068009 50.9651514,48.4034227 47.0590613,47.3561858 C42.4686306,46.1254748 37.6239066,48.1315438 35.2472378,52.247142 C32.870569,56.3627402 33.5546256,61.5615603 36.9150224,64.9222799 C40.2754192,68.2829996 45.4741735,68.9675557 49.59,66.5912822 C49.7426876,66.503128 49.9044316,66.4448688 50.0684541,66.4146885 Z M7.00031355,56.4724714 C6.99212775,56.063128 7.14421947,55.6511751 7.45658874,55.3388058 L13.3388058,49.4565887 C13.9475908,48.8478038 14.9346263,48.8478038 15.5434113,49.4565887 C16.1521962,50.0653737 16.1521962,51.0524092 15.5434113,51.6611942 L12.2046054,55 L24.1,55 C25.149341,55 26,55.6715729 26,56.5 C26,57.3284271 25.149341,58 24.1,58 L12.2046054,58 L15.5434113,61.3388058 C16.1521962,61.9475908 16.1521962,62.9346263 15.5434113,63.5434113 C14.9346263,64.1521962 13.9475908,64.1521962 13.3388058,63.5434113 L7.45658874,57.6611942 C7.14421947,57.3488249 6.99212775,56.936872 7.00031355,56.5275286 C7.00010482,56.5183722 7,56.5091958 7,56.5 C7,56.4908042 7.00010482,56.4816278 7.00031355,56.4724714 Z"/>
  </g>
</svg>
